packages/foundations/assets/icons/functional/images/audio & video/fast_backward_10_28.svg

<svg width="28" height="28" viewBox="0 0 28 28" fill="none" xmlns="http://www.w3.org/2000/svg">
<g clip-path="url(#clip0_184_228)">
<path fill-rule="evenodd" clip-rule="evenodd" d="M24.3685 16.6163C24.3685 11.2693 19.9715 6.96331 14.6155 7.01931L15.7715 5.86631C15.8524 5.78473 15.9165 5.68796 15.9599 5.58156C16.0033 5.47516 16.0253 5.36122 16.0245 5.24631C16.0261 5.13126 16.0046 5.01706 15.9613 4.91047C15.918 4.80388 15.8538 4.70706 15.7723 4.62575C15.6909 4.54444 15.5941 4.48029 15.4874 4.4371C15.3808 4.39391 15.2665 4.37256 15.1515 4.37431C14.9195 4.37309 14.6964 4.4641 14.5315 4.62731L11.7685 7.38531C11.6874 7.4668 11.6232 7.56353 11.5796 7.66994C11.536 7.77634 11.5139 7.89032 11.5145 8.00531C11.5145 8.23031 11.5995 8.45531 11.7685 8.62431L14.5305 11.3813C14.7005 11.5513 14.9255 11.6353 15.1505 11.6353C15.2657 11.6372 15.3801 11.6159 15.487 11.5727C15.5938 11.5295 15.6908 11.4653 15.7724 11.3839C15.8539 11.3025 15.9182 11.2055 15.9615 11.0987C16.0048 10.9919 16.0263 10.8775 16.0245 10.7623C16.0251 10.6476 16.0031 10.5338 15.9597 10.4276C15.9163 10.3214 15.8523 10.2248 15.7715 10.1433L14.3895 8.76431C18.7595 8.56731 22.6205 12.0573 22.6205 16.5883C22.6236 18.4934 21.9321 20.3344 20.6755 21.7663C20.5448 21.9245 20.4749 22.1241 20.4785 22.3293C20.4785 22.8363 20.8455 23.2293 21.3525 23.2293C21.5688 23.2315 21.7773 23.1489 21.9335 22.9993L22.0005 22.9203C23.5505 21.1753 24.3685 18.9243 24.3685 16.6163ZM3.6315 16.4283C3.6315 16.1183 3.8285 15.7813 4.1115 15.6403L6.6755 14.3463C6.79016 14.2915 6.91543 14.2625 7.0425 14.2613C7.4365 14.2613 7.9445 14.5433 7.9445 15.1343V21.8793H9.7765C9.89163 21.8774 10.006 21.8987 10.1127 21.9418C10.2195 21.9849 10.3165 22.0491 10.398 22.1304C10.4795 22.2117 10.5439 22.3086 10.5872 22.4152C10.6306 22.5219 10.6521 22.6362 10.6505 22.7513C10.6492 22.9826 10.5566 23.204 10.393 23.3675C10.2293 23.531 10.0078 23.6233 9.7765 23.6243H4.5335C4.3022 23.6233 4.08065 23.531 3.917 23.3675C3.75335 23.204 3.66081 22.9826 3.6595 22.7513C3.65788 22.6362 3.67939 22.5219 3.72277 22.4152C3.76614 22.3086 3.83049 22.2117 3.912 22.1304C3.99351 22.0491 4.09052 21.9849 4.19728 21.9418C4.30404 21.8987 4.41837 21.8774 4.5335 21.8793H6.1965V16.5693L4.9005 17.2163C4.78584 17.2711 4.66057 17.3001 4.5335 17.3013C4.0535 17.3013 3.6315 16.8793 3.6315 16.4283ZM15.0195 13.9993C17.0495 13.9993 18.5145 15.3123 18.5145 17.5183V20.0783C18.5145 22.3133 16.9925 23.5963 15.0195 23.6253C13.0465 23.6533 11.5525 22.3123 11.5525 20.1353V17.4333C11.5525 15.3133 13.1025 14.0003 15.0195 14.0003V13.9993ZM15.0195 15.7453C13.8075 15.7453 13.2715 16.2793 13.2715 17.4333V20.1353C13.2715 21.4013 13.7795 21.9083 15.0195 21.9083C16.2315 21.9083 16.7955 21.3173 16.7955 20.0783V17.5183C16.7955 16.2513 16.2875 15.7453 15.0195 15.7453Z" fill="#1A1C1F"/>
</g>
<defs>
<clipPath id="clip0_184_228">
<rect width="28" height="28" fill="white"/>
</clipPath>
</defs>
</svg>

<svg xmlns="http://www.w3.org/2000/svg" width="28" height="28" fill="none"><g clip-path="url(#a)"><path fill="#1A1C1F" fill-rule="evenodd" d="M24.369 16.616c0-5.347-4.398-9.653-9.753-9.597l1.156-1.153a.87.87 0 0 0 .252-.62.86.86 0 0 0-.873-.872.88.88 0 0 0-.62.253l-2.763 2.758a.87.87 0 0 0-.254.62c0 .225.086.45.255.62l2.762 2.756c.17.17.394.254.62.254a.86.86 0 0 0 .874-.873.87.87 0 0 0-.253-.619l-1.383-1.379c4.37-.197 8.232 3.293 8.232 7.824a7.83 7.83 0 0 1-1.945 5.178.86.86 0 0 0-.197.563c0 .507.367.9.874.9a.83.83 0 0 0 .58-.23L22 22.92c1.55-1.745 2.369-3.996 2.369-6.304m-20.737-.188c0-.31.196-.647.48-.788l2.564-1.294a.9.9 0 0 1 .367-.085c.393 0 .901.282.901.873v6.745h1.833a.86.86 0 0 1 .874.872.88.88 0 0 1-.874.873H4.534a.878.878 0 0 1-.622-1.494.86.86 0 0 1 .622-.25h1.663v-5.31l-1.296.646a.9.9 0 0 1-.367.085c-.48 0-.902-.422-.902-.873M15.02 14c2.03 0 3.495 1.313 3.495 3.52v2.56c0 2.234-1.523 3.517-3.495 3.546s-3.467-1.313-3.467-3.49v-2.702c0-2.12 1.55-3.433 3.467-3.433m0 1.746c-1.213 0-1.748.534-1.748 1.688v2.702c0 1.266.508 1.773 1.748 1.773 1.212 0 1.776-.59 1.776-1.83v-2.56c0-1.267-.508-1.773-1.776-1.773" clip-rule="evenodd"/></g><defs><clipPath id="a"><path fill="#fff" d="M0 0h28v28H0z"/></clipPath></defs></svg>
